X: 368
T:The Dark Maiden of the Valley
M:3/4
L:1/8
B:O'Neill's 368
N:"Moderate."
N:"collected by J. O'Neill."
Z:Transcribed by Chris Falt, cfalt@trytel.com
K:G
3BGd|fe2 de dc|BA GE GB|BA2 G2 GA|G6 A//B//c//d//e//f//|
g2 gb ag|fd BA GA|B2 df ec|cd6 A//B//c//d//e//f//|
g2 gb ag|f2 dc BA|G2 GA B/2d/2e/2f/2|g4 3bag|
f2 de dc|BA GE GB|BA2 G2 GA|FG2||
